src/qt/cari/res/img/img-logo-cari.svg

<?xml version="1.0" encoding="UTF-8"?>
<svg width="300px" height="100px" viewBox="0 0 300 100" version="1.1" xmlns="http://www.w3.org/2000/svg" xmlns:xlink="http://www.w3.org/1999/xlink">
    <!-- Generator: Sketch 53.2 (72643) - https://sketchapp.com -->
    <title>Artboard</title>
    <desc>Created with Sketch.</desc>
    <g id="Artboard" stroke="none" stroke-width="1" fill="none" fill-rule="evenodd">
        <g id="PIVX_Logo-01" transform="translate(5.000000, 6.966292)" fill-rule="nonzero">
            <path d="M35.4641522,0.0337078652 L0,7.36939783 L0,56.0128482 C0,63.1348313 7.37335602,69.8650904 15.3580805,75.0998319 C21.6151568,79.159401 28.1624918,82.7206076 34.9244793,85.8187111 L35.4997827,86.0337079 L36.0750861,85.8187111 C37.5137792,85.2846591 71,71.1830206 71,56.0128482 L71,7.36939783 L35.4641522,0.0337078652 Z" id="Shape" fill="#FFFFFF"></path>
            <path d="M35.4641522,0.0337078652 L0,7.36939783 L0,56.0128482 C0,63.1348313 7.37335602,69.8650904 15.3580805,75.0998319 C21.6151568,79.159401 28.1624918,82.7206076 34.9244793,85.8187111 L35.4997827,86.0337079 L36.0750861,85.8187111 C37.5137792,85.2846591 71,71.1830206 71,56.0128482 L71,7.36939783 L35.4641522,0.0337078652 Z M68.1230485,56.0128482 C68.1230485,66.624659 45.0678952,77.8419007 35.4641522,81.5811247 L34.9966095,81.4031073 L34.8167186,81.3317284 L34.4930018,81.1894005 L34.3131109,81.1180216 L33.9893941,80.9756937 L33.8816333,80.9400043 L33.4857863,80.7619869 L33.3780256,80.7262975 L32.946548,80.5482801 L32.8744178,80.5125907 L32.4068752,80.3345734 L32.3716791,80.3345734 L31.8320063,80.1195766 L31.7959412,80.1195766 C27.0123195,78.0186281 20.7900048,74.9205246 15.3228845,71.288369 L14.6754509,70.8609555 L14.0280173,70.3978524 L13.4166488,69.9704388 L13.3805837,69.9347493 L12.8052803,69.5073358 L12.7692152,69.4716463 L12.1930428,69.0476727 L12.1569777,69.0119832 L11.5816743,68.5845696 L11.5095441,68.5488801 L10.9698713,68.157156 L10.8977411,68.1214665 L10.3941334,67.7297424 L10.3220032,67.6583635 L9.85446055,67.2666394 L9.78233037,67.1952604 L9.35085282,66.8035363 L9.24309206,66.7321574 L8.84724509,66.3404333 L8.73948433,66.2337949 L8.34363735,65.8420707 L8.2358766,65.7354323 L7.84002962,65.3793977 L7.73226886,65.2727593 L7.37248698,64.9167246 L7.26472622,64.7743968 L6.94100943,64.4183621 L6.83324867,64.2760342 L6.50953188,63.9199996 L6.40177112,63.7776717 L6.11411943,63.421637 L5.97029358,63.2793092 L5.71870697,62.958964 L5.57488112,62.7809467 L5.32329451,62.4606015 L5.17946866,62.2825841 L4.96220907,61.9622389 L4.85444831,61.7842216 L4.63718872,61.4638764 L4.52942796,61.2488796 C4.45729778,61.1422412 4.42166721,61.0338829 4.34953702,60.9637939 L4.20571117,60.7487971 C4.14369078,60.6613863 4.09521385,60.5652973 4.06188532,60.4637114 L3.95412457,60.2487146 C3.91805947,60.1420762 3.84636381,60.0706973 3.81029872,59.9636289 C3.7820495,59.8884422 3.74593286,59.8163848 3.70253796,59.7486321 C3.6607918,59.6558609 3.62480468,59.5606554 3.5947772,59.4635464 C3.55871211,59.356908 3.52264702,59.3212186 3.48701644,59.2141502 C3.45786865,59.1283095 3.42183364,59.0449118 3.37925569,58.9647539 C3.33896963,58.8870868 3.31446394,58.8023563 3.3071255,58.7153576 C3.3071255,58.6439787 3.23499532,58.5373403 3.23499532,58.4659614 C3.22791659,58.3789159 3.20339661,58.294136 3.16286513,58.2165651 C3.12680004,58.1451862 3.12680004,58.0742373 3.09073495,57.9671689 C3.05466986,57.8601005 3.05466986,57.7891515 3.01860477,57.6820831 C2.99170424,57.6136524 2.9794244,57.5404479 2.98253967,57.4670864 C2.98253967,57.3957074 2.94647458,57.289069 2.94647458,57.1820006 C2.94647458,57.0749322 2.91040949,57.0396728 2.91040949,56.9670039 C2.89993925,56.8576665 2.87570826,56.7500517 2.8382793,56.6466587 C2.80221421,56.5400203 2.8382793,56.5400203 2.8382793,56.4686413 L2.8382793,9.97085881 L35.3224989,4.80663627 L35.6101506,4.80663627 L68.089156,9.97085881 L68.1252211,56.0149981 L68.1230485,56.0149981 L68.1230485,56.0128482 Z" id="Shape" fill="#5E4778"></path>
            <path d="M35.499784,8.03370787 L11.0424803,11.9704435 L6,12.7573585 L6,54.6643634 C6,64.3627343 26.8463988,74.6336819 35.499784,78.0337079 C40.5414003,76.06534 49.6954481,71.7707979 56.4537454,66.6176066 C56.954408,66.223933 57.4904928,65.8302594 57.9557332,65.4365859 C60.2797754,63.5399522 62.2107174,61.5357173 63.46259,59.4960474 C64.428061,57.9213532 65,56.3107918 65,54.6993662 L65,12.7573585 L35.499784,8.03370787 Z M21.2682657,30.258763 L38.4692014,30.258763 L38.4692014,33.8376921 L21.2682657,33.8376921 L21.2682657,30.258763 Z M54.8087728,31.9410585 C54.8087728,40.4225415 48.908816,45.8989687 40.7560935,45.8989687 L29.4568425,45.8989687 L29.4568425,63.7923181 L24.9871651,63.7923181 L24.9871651,41.8529032 L40.1495962,41.8529032 C46.2283919,41.8529032 50.1974067,38.166805 50.1974067,31.9397621 C50.1974067,25.7844533 46.2283919,22.2055241 40.2187127,22.2055241 L35.499784,22.2055241 L24.200533,22.2413912 L24.200533,18.1616194 L40.7193753,18.1616194 C48.9079521,18.1616194 54.8079089,23.458279 54.8079089,31.9397621 L54.8087728,31.9410585 Z" id="Shape" fill="#5E4778"></path>
            <path d="M36.0334149,0.0337078652 L36.0334149,4.80885668 L36.1752142,4.80885668 L68.1987148,9.97548166 L68.1987148,56.0018935 C68.1987148,66.6186411 45.4684211,77.8411012 36,81.5820646 L36,86.0337079 L36.5671971,85.8186111 C37.9856181,85.2843106 71,71.1761119 71,55.9988822 L71,7.37281046 L36.0334149,0.0337078652 Z" id="Path" fill="#5E4778"></path>
            <path d="M40.6807745,45.5473583 L29.4167693,45.5473583 L29.4167693,47.6408066 C31.3317259,49.1581839 33.364585,50.5230675 35.4963597,51.7227094 C42.612833,55.7686142 51.7680774,58.5014535 63.462389,59.0337079 C64.4279862,57.4720854 65,55.8748937 65,54.2768448 L65,12.7185751 L35.4963597,8.03370787 L11,11.9377639 C12.1444596,21.0589417 15.5419794,33.657772 24.9473718,43.559761 L24.9473718,41.5725921 L40.1117849,41.5725921 C46.1913753,41.5725921 50.1609089,37.9170929 50.1609089,31.7417418 C50.1609089,25.6375295 46.1913753,22.0883097 40.1809105,22.0883097 L35.4605008,22.0883097 L24.1597728,22.123879 L24.1597728,18.0779742 L40.6807745,18.0779742 C48.8345628,18.0779742 54.7352908,23.3662345 54.7352908,31.705744 C54.7352908,40.1168206 48.8704216,45.5477869 40.6807745,45.5477869 L40.6807745,45.5473583 Z M35.4605008,30.0746971 L38.3909913,30.0746971 L38.3909913,33.6239168 L21.2271222,33.6239168 L21.2271222,30.0746971 L35.4605008,30.0746971 Z" id="Shape" fill="#5E4778"></path>
            <path d="M34.539468,81.4031073 L34.3621097,81.3317284 L34.0429503,81.22509 L33.865592,81.1537111 L33.5464326,81.0113832 L33.440189,80.9756937 L33.0499149,80.7976764 L32.9436713,80.7619869 L32.5182683,80.5839696 L32.4471536,80.5482801 L31.9861932,80.3332834 L31.9159353,80.3332834 L31.3838603,80.1182866 L31.3483029,80.1182866 C26.6675847,78.0173381 20.5324423,74.9192346 15.1422906,71.2513896 L14.5039719,70.823976 L13.8656532,70.3256135 L13.2628918,69.8981999 L13.2273345,69.8625104 L12.6601305,69.4350968 L12.6245731,69.3994074 L12.0573691,68.9719938 L12.0218118,68.9363043 L11.4546078,68.5088907 L11.3834931,68.4732013 L10.851418,68.0814771 L10.7803033,68.0457877 L10.2837856,67.6540636 L10.2130993,67.5856946 L9.75213895,67.1939705 L9.68102425,67.1225915 L9.25562124,66.7308674 L9.14937759,66.6594885 L8.75910354,66.2677644 L8.65285989,66.161126 L8.26258583,65.7694018 L8.15634218,65.6627634 L7.76606813,65.3067288 L7.65982448,65.2000904 L7.30510777,64.8440557 L7.19886412,64.7017278 L6.87970477,64.3456932 L6.77346112,64.2033653 L6.45430177,63.8473307 L6.34805812,63.7050028 L6.02889876,63.4199171 L5.88709776,63.2775892 L5.63905311,62.957244 L5.49725211,62.7792267 L5.24920746,62.4588815 L5.10740646,62.2808642 L4.89320555,61.960519 L4.7869619,61.7825016 L4.57276099,61.4621564 L4.46651734,61.2841391 C4.39540264,61.1775007 4.36027369,61.0691423 4.28915899,60.9990534 L4.14735798,60.7840566 L4.00555698,60.4989709 L3.89931333,60.2839741 C3.86375598,60.1773357 3.79306968,60.1059568 3.75751233,59.9988884 C3.72966082,59.9237017 3.69405265,59.8516443 3.65126868,59.7838916 C3.61011024,59.6911204 3.57462977,59.5959149 3.54502503,59.4988059 C3.50946768,59.3921675 3.47391033,59.356478 3.43878138,59.2494096 C3.41004394,59.163569 3.37451625,59.0801713 3.33253773,59.0000134 C3.28821712,58.9242486 3.26375051,58.8384452 3.26142303,58.7506171 C3.26142303,58.6439787 3.19030833,58.5356203 3.19030833,58.4655314 C3.18332925,58.3784859 3.15915448,58.293706 3.11919363,58.2161351 C3.08363627,58.1447562 3.08363627,58.0738073 3.04807892,57.9667389 C3.01252157,57.8596705 3.01252157,57.7887215 2.97696422,57.6816531 C2.95044241,57.6132224 2.93833545,57.5400179 2.94140687,57.4666564 C2.94140687,57.3952774 2.90584952,57.288639 2.90584952,57.1815706 C2.90584952,57.0745023 2.87029217,57.0392428 2.87029217,56.9665739 C2.85996934,56.8572365 2.83607949,56.7496217 2.79917747,56.6462287 C2.76362012,56.5395903 2.79917747,56.5395903 2.79917747,56.4682113 L2.79917747,9.97085881 L34.8252121,4.80663627 L34.9670131,4.80663627 L34.9670131,0.0337078652 L0,7.36939783 L0,56.0128482 C0,63.1348313 7.26955042,69.8650904 15.1418622,75.0998319 C21.3108484,79.159401 27.7660069,82.7206076 34.432796,85.8187111 L35,86.0337079 L35,81.5811247 L34.5390396,81.4031073" id="Path" fill="#3D3144"></path>
            <path d="M35.7756762,52.1128303 C33.6242456,50.904305 31.5726427,49.5293145 29.6400295,48.0007009 L29.6400295,63.8016389 L25.1294222,63.8016389 L25.1294222,43.889435 C15.6364361,33.8787205 12.2437792,21.1861638 11.0896393,12.0337079 L6,12.8198693 L6,54.6867427 C6,64.375826 27.0413616,74.6369379 35.7756762,78.0337079 C40.8644435,76.067225 50.1041031,71.7767954 56.9256063,66.628539 C57.4309513,66.2352424 57.9720497,65.8419459 58.4416412,65.4486493 C60.7874186,63.5538319 62.7364195,61.5515163 64,59.5137997 C52.197862,58.9059385 42.9943919,56.1528625 35.7761122,52.1128303" id="Path" fill="#3D3144"></path>
            <polygon id="Path" fill="#FFFFFF" points="238.010251 19.0337079 251.977839 19.0337079 263.291956 35.5223585 274.728097 19.0337079 288.926797 19.0337079 270.897079 44.5603435 290 72.0337079 275.668928 72.0337079 263.287645 54.6401007 251.006394 72.0337079 237 72.0337079 255.918808 45.0848752"></polygon>
            <polygon id="Path" fill="#FFFFFF" points="230 19.0337079 208.654782 72.0337079 195.952402 72.0337079 175 19.0337079 188.095633 19.0337079 202.500218 59.0229209 217.29762 19.0337079"></polygon>
            <rect id="Rectangle" fill="#FFFFFF" x="152" y="19.0337079" width="12" height="53"></rect>
            <path d="M114.440945,20.068019 L114.440945,20.0337079 L94,20.0337079 L94,73.0337079 L106.082677,73.0337079 L106.082677,57.8814764 L114.440945,57.8814764 C127.750945,57.8814764 138,53.5068052 138,38.4099005 C138,19.8488566 120.813583,20.1259191 114.440945,20.068019 Z M126.480315,39.4409504 C126.408858,44.6794048 123.492126,48.0187372 114.440945,47.825737 L106.082677,47.825737 L106.082677,29.8338292 L114.440945,29.8338292 C123.708661,29.8338292 126.566929,33.0933882 126.480315,39.4409504 Z" id="Shape" fill="#FFFFFF"></path>
        </g>
    </g>
</svg>

<?xml version="1.0" encoding="utf-8"?>
<!-- Generator: Adobe Illustrator 24.1.3, SVG Export Plug-In . SVG Version: 6.00 Build 0)  -->
<svg version="1.1" xmlns="http://www.w3.org/2000/svg" xmlns:xlink="http://www.w3.org/1999/xlink" x="0px" y="0px"
	 viewBox="0 0 300 100" style="enable-background:new 0 0 300 100;" xml:space="preserve">
<style type="text/css">
	.st0{display:none;}
	.st1{display:inline;fill:#FF00FF;stroke:#000000;stroke-miterlimit:10;}
	.st2{display:inline;}
	.st3{fill:#FFFFFF;}
	.st4{fill:#5E4778;}
	.st5{fill:#3D3144;}
</style>
<g id="Layer_2" class="st0">
	<rect x="-86" y="-65" class="st1" width="509" height="258"/>
</g>
<g id="Layer_1" class="st0">
	<desc>Created with Sketch.</desc>
	<g id="Artboard" class="st2">
		<g id="PIVX_Logo-01" transform="translate(5.000000, 6.966292)">
			<path id="Shape" class="st3" d="M35.5,0L0,7.4V56c0,7.1,7.4,13.9,15.4,19.1c6.3,4.1,12.8,7.6,19.6,10.7l0.6,0.2l0.6-0.2
				C37.5,85.3,71,71.2,71,56V7.4L35.5,0z"/>
			<path id="Shape_1_" class="st4" d="M35.5,0L0,7.4V56c0,7.1,7.4,13.9,15.4,19.1c6.3,4.1,12.8,7.6,19.6,10.7l0.6,0.2l0.6-0.2
				C37.5,85.3,71,71.2,71,56V7.4L35.5,0z M68.1,56c0,10.6-23.1,21.8-32.7,25.6L35,81.4l-0.2-0.1l-0.3-0.1l-0.2-0.1L34,81l-0.1,0
				l-0.4-0.2l-0.1,0l-0.4-0.2l-0.1,0l-0.5-0.2h0l-0.5-0.2h0c-4.8-2.1-11-5.2-16.5-8.8l-0.6-0.4L14,70.4L13.4,70l0,0l-0.6-0.4l0,0
				L12.2,69l0,0l-0.6-0.4l-0.1,0L11,68.2l-0.1,0l-0.5-0.4l-0.1-0.1l-0.5-0.4l-0.1-0.1l-0.4-0.4l-0.1-0.1l-0.4-0.4l-0.1-0.1l-0.4-0.4
				l-0.1-0.1l-0.4-0.4l-0.1-0.1l-0.4-0.4l-0.1-0.1l-0.3-0.4l-0.1-0.1l-0.3-0.4l-0.1-0.1l-0.3-0.4L6,63.3L5.7,63l-0.1-0.2l-0.3-0.3
				l-0.1-0.2L5,62l-0.1-0.2l-0.2-0.3l-0.1-0.2C4.5,61.1,4.4,61,4.3,61l-0.1-0.2c-0.1-0.1-0.1-0.2-0.1-0.3L4,60.2
				c0-0.1-0.1-0.2-0.1-0.3c0-0.1-0.1-0.1-0.1-0.2c0-0.1-0.1-0.2-0.1-0.3c0-0.1-0.1-0.1-0.1-0.2c0-0.1-0.1-0.2-0.1-0.2
				c0-0.1-0.1-0.2-0.1-0.2c0-0.1-0.1-0.2-0.1-0.2c0-0.1,0-0.2-0.1-0.2c0-0.1,0-0.1-0.1-0.2c0-0.1,0-0.2-0.1-0.3c0-0.1,0-0.1,0-0.2
				c0-0.1,0-0.2,0-0.3c0-0.1,0-0.1,0-0.2c0-0.1,0-0.2-0.1-0.3c0-0.1,0-0.1,0-0.2V10l32.5-5.2h0.3L68.1,10L68.1,56L68.1,56L68.1,56z"
				/>
			<path id="Shape_2_" class="st4" d="M35.5,8L11,12l-5,0.8v41.9c0,9.7,20.8,20,29.5,23.4c5-2,14.2-6.3,21-11.4
				c0.5-0.4,1-0.8,1.5-1.2c2.3-1.9,4.3-3.9,5.5-5.9c1-1.6,1.5-3.2,1.5-4.8V12.8L35.5,8z M21.3,30.3h17.2v3.6H21.3V30.3z M54.8,31.9
				c0,8.5-5.9,14-14.1,14H29.5v17.9H25V41.9h15.2c6.1,0,10-3.7,10-9.9c0-6.2-4-9.7-10-9.7h-4.7l-11.3,0v-4.1h16.5
				C48.9,18.2,54.8,23.5,54.8,31.9L54.8,31.9z"/>
			<path id="Path" class="st4" d="M36,0v4.8h0.1l32,5.2v46c0,10.6-22.7,21.8-32.2,25.6V86l0.6-0.2C38,85.3,71,71.2,71,56V7.4L36,0z"
				/>
			<path id="Shape_3_" class="st4" d="M40.7,45.5H29.4v2.1c1.9,1.5,3.9,2.9,6.1,4.1c7.1,4,16.3,6.8,28,7.3c1-1.6,1.5-3.2,1.5-4.8
				V12.7L35.5,8L11,11.9c1.1,9.1,4.5,21.7,13.9,31.6v-2h15.2c6.1,0,10-3.7,10-9.8c0-6.1-4-9.7-10-9.7h-4.7l-11.3,0v-4h16.5
				c8.2,0,14.1,5.3,14.1,13.6C54.7,40.1,48.9,45.5,40.7,45.5L40.7,45.5z M35.5,30.1h2.9v3.5H21.2v-3.5H35.5z"/>
			<path id="Path_1_" class="st5" d="M34.5,81.4l-0.2-0.1L34,81.2l-0.2-0.1L33.5,81l-0.1,0L33,80.8l-0.1,0l-0.4-0.2l-0.1,0L32,80.3
				h-0.1l-0.5-0.2h0c-4.7-2.1-10.8-5.2-16.2-8.9l-0.6-0.4l-0.6-0.5l-0.6-0.4l0,0l-0.6-0.4l0,0L12.1,69l0,0l-0.6-0.4l-0.1,0l-0.5-0.4
				l-0.1,0l-0.5-0.4l-0.1-0.1l-0.5-0.4l-0.1-0.1l-0.4-0.4l-0.1-0.1l-0.4-0.4l-0.1-0.1l-0.4-0.4l-0.1-0.1l-0.4-0.4l-0.1-0.1l-0.4-0.4
				l-0.1-0.1l-0.3-0.4l-0.1-0.1l-0.3-0.4l-0.1-0.1L6,63.4l-0.1-0.1L5.6,63l-0.1-0.2l-0.2-0.3l-0.1-0.2L4.9,62l-0.1-0.2l-0.2-0.3
				l-0.1-0.2c-0.1-0.1-0.1-0.2-0.2-0.3l-0.1-0.2L4,60.5l-0.1-0.2c0-0.1-0.1-0.2-0.1-0.3c0-0.1-0.1-0.1-0.1-0.2
				c0-0.1-0.1-0.2-0.1-0.3c0-0.1-0.1-0.1-0.1-0.2c0-0.1-0.1-0.2-0.1-0.2c0-0.1-0.1-0.2-0.1-0.2c0-0.1-0.1-0.2-0.1-0.3
				c0-0.1,0-0.2-0.1-0.2c0-0.1,0-0.1-0.1-0.2c0-0.1,0-0.2-0.1-0.3c0-0.1,0-0.1,0-0.2c0-0.1,0-0.2,0-0.3c0-0.1,0-0.1,0-0.2
				c0-0.1,0-0.2-0.1-0.3c0-0.1,0-0.1,0-0.2V10l32-5.2H35V0L0,7.4V56c0,7.1,7.3,13.9,15.1,19.1c6.2,4.1,12.6,7.6,19.3,10.7L35,86
				v-4.5L34.5,81.4"/>
			<path id="Path_2_" class="st5" d="M35.8,52.1c-2.2-1.2-4.2-2.6-6.1-4.1v15.8h-4.5V43.9c-9.5-10-12.9-22.7-14-31.9L6,12.8v41.9
				c0,9.7,21,20,29.8,23.3c5.1-2,14.3-6.3,21.1-11.4c0.5-0.4,1-0.8,1.5-1.2c2.3-1.9,4.3-3.9,5.6-5.9C52.2,58.9,43,56.2,35.8,52.1"/>
			<polygon id="Path_3_" class="st3" points="238,19 252,19 263.3,35.5 274.7,19 288.9,19 270.9,44.6 290,72 275.7,72 263.3,54.6 
				251,72 237,72 255.9,45.1 			"/>
			<polygon id="Path_4_" class="st3" points="230,19 208.7,72 196,72 175,19 188.1,19 202.5,59 217.3,19 			"/>
			<rect id="Rectangle" x="152" y="19" class="st3" width="12" height="53"/>
			<path id="Shape_4_" class="st3" d="M114.4,20.1L114.4,20.1L94,20v53h12.1V57.9h8.4c13.3,0,23.6-4.4,23.6-19.5
				C138,19.8,120.8,20.1,114.4,20.1z M126.5,39.4c-0.1,5.2-3,8.6-12,8.4h-8.4v-18h8.4C123.7,29.8,126.6,33.1,126.5,39.4z"/>
		</g>
	</g>
</g>
<g id="Layer_3">
	<image style="overflow:visible;" width="300" height="100" xlink:href="img-logo-cari.png"  transform="matrix(1 0 0 1 0.5 0.5)">
	</image>
</g>
</svg>
